X: 28655
T: Musical Priest, The
R: reel
M: 4/4
K: Aminor
AG|:E2AG ABcA|(3dBA G e dBAG|EAAG ABcA|BAGB A^GAG:|2 BAGE A^GAB||
c2 cB cedc|(3BAG dG eGdB|cB (3A_B=B cdea|gedB A^GAB:|
cA ~A2 agea|gedB GABd|cA ~A2 agea|gedB A2 AB||
cA ~A2 agea|gedB GABd|c2 (3A_B=B cdea|gedB A^GAG||

